img/info/03/03.svg

<svg width="92" height="92" viewBox="0 0 92 92" fill="none" xmlns="http://www.w3.org/2000/svg">
<rect x="1" y="1" width="90" height="90" rx="10" fill="url(#paint0_linear_396_88527)" stroke="#343434" stroke-width="2"/>
<path d="M21 35.4643H67.4286V33.9643H21V35.4643ZM21.75 68.6429V34.7143H20.25V68.6429H21.75ZM66.6786 34.7143V50.1905H68.1786V34.7143H66.6786ZM21.75 34.7143V28.6428H20.25V34.7143H21.75ZM66.6786 28.6428V34.7143H68.1786V28.6428H66.6786ZM54.9921 69.6786H25.2042V71.1786H54.9921V69.6786ZM25.2042 69.6786H22.8279V71.1786H25.2042V69.6786ZM22.8279 27.6071H26.4837V26.1071H22.8279V27.6071ZM31.419 27.6071H36.9027V26.1071H31.419V27.6071ZM41.2896 27.6071H47.1389V26.1071H41.2896V27.6071ZM51.7087 27.6071H57.3751V26.1071H51.7087V27.6071ZM62.4932 27.6071H65.6007V26.1071H62.4932V27.6071ZM68.1786 28.6428C68.1786 27.226 67.0078 26.1071 65.6007 26.1071V27.6071C66.2126 27.6071 66.6786 28.0872 66.6786 28.6428H68.1786ZM21.75 28.6428C21.75 28.0872 22.216 27.6071 22.8279 27.6071V26.1071C21.4208 26.1071 20.25 27.226 20.25 28.6428H21.75ZM20.25 68.6429C20.25 70.0597 21.4208 71.1786 22.8279 71.1786V69.6786C22.216 69.6786 21.75 69.1985 21.75 68.6429H20.25ZM30.4861 42.7462C30.4861 43.499 29.8565 44.139 29.0427 44.139V45.639C30.6517 45.639 31.9861 44.3603 31.9861 42.7462H30.4861ZM29.0427 44.139C28.2288 44.139 27.5992 43.499 27.5992 42.7462H26.0992C26.0992 44.3603 27.4336 45.639 29.0427 45.639V44.139ZM27.5992 42.7462C27.5992 41.9933 28.2288 41.3533 29.0427 41.3533V39.8533C27.4336 39.8533 26.0992 41.1321 26.0992 42.7462H27.5992ZM29.0427 41.3533C29.8565 41.3533 30.4861 41.9933 30.4861 42.7462H31.9861C31.9861 41.1321 30.6517 39.8533 29.0427 39.8533V41.3533ZM30.4861 51.049C30.4861 51.8018 29.8565 52.4419 29.0427 52.4419V53.9419C30.6517 53.9419 31.9861 52.6631 31.9861 51.049H30.4861ZM29.0427 52.4419C28.2288 52.4419 27.5992 51.8018 27.5992 51.049H26.0992C26.0992 52.6631 27.4336 53.9419 29.0427 53.9419V52.4419ZM27.5992 51.049C27.5992 50.2962 28.2288 49.6561 29.0427 49.6561V48.1561C27.4336 48.1561 26.0992 49.4349 26.0992 51.049H27.5992ZM29.0427 49.6561C29.8565 49.6561 30.4861 50.2962 30.4861 51.049H31.9861C31.9861 49.4349 30.6517 48.1561 29.0427 48.1561V49.6561ZM30.4861 60.3882C30.4861 61.1411 29.8565 61.7811 29.0427 61.7811V63.2811C30.6517 63.2811 31.9861 62.0023 31.9861 60.3882H30.4861ZM29.0427 61.7811C28.2288 61.7811 27.5992 61.1411 27.5992 60.3882H26.0992C26.0992 62.0023 27.4336 63.2811 29.0427 63.2811V61.7811ZM27.5992 60.3882C27.5992 59.6354 28.2288 58.9954 29.0427 58.9954V57.4954C27.4336 57.4954 26.0992 58.7741 26.0992 60.3882H27.5992ZM29.0427 58.9954C29.8565 58.9954 30.4861 59.6354 30.4861 60.3882H31.9861C31.9861 58.7741 30.6517 57.4954 29.0427 57.4954V58.9954ZM43.543 42.7462C43.543 43.499 42.9133 44.139 42.0995 44.139V45.639C43.7085 45.639 45.043 44.3603 45.043 42.7462H43.543ZM42.0995 44.139C41.2857 44.139 40.656 43.499 40.656 42.7462H39.156C39.156 44.3603 40.4905 45.639 42.0995 45.639V44.139ZM40.656 42.7462C40.656 41.9933 41.2857 41.3533 42.0995 41.3533V39.8533C40.4905 39.8533 39.156 41.1321 39.156 42.7462H40.656ZM42.0995 41.3533C42.9133 41.3533 43.543 41.9933 43.543 42.7462H45.043C45.043 41.1321 43.7085 39.8533 42.0995 39.8533V41.3533ZM43.543 51.049C43.543 51.8018 42.9133 52.4419 42.0995 52.4419V53.9419C43.7085 53.9419 45.043 52.6631 45.043 51.049H43.543ZM42.0995 52.4419C41.2857 52.4419 40.656 51.8018 40.656 51.049H39.156C39.156 52.6631 40.4905 53.9419 42.0995 53.9419V52.4419ZM40.656 51.049C40.656 50.2962 41.2857 49.6561 42.0995 49.6561V48.1561C40.4905 48.1561 39.156 49.4349 39.156 51.049H40.656ZM42.0995 49.6561C42.9133 49.6561 43.543 50.2962 43.543 51.049H45.043C45.043 49.4349 43.7085 48.1561 42.0995 48.1561V49.6561ZM43.543 60.3882C43.543 61.1411 42.9133 61.7811 42.0995 61.7811V63.2811C43.7085 63.2811 45.043 62.0023 45.043 60.3882H43.543ZM42.0995 61.7811C41.2857 61.7811 40.656 61.1411 40.656 60.3882H39.156C39.156 62.0023 40.4905 63.2811 42.0995 63.2811V61.7811ZM40.656 60.3882C40.656 59.6354 41.2857 58.9954 42.0995 58.9954V57.4954C40.4905 57.4954 39.156 58.7741 39.156 60.3882H40.656ZM42.0995 58.9954C42.9133 58.9954 43.543 59.6354 43.543 60.3882H45.043C45.043 58.7741 43.7085 57.4954 42.0995 57.4954V58.9954ZM55.5365 42.7462C55.5365 43.499 54.9069 44.139 54.0931 44.139V45.639C55.7021 45.639 57.0365 44.3603 57.0365 42.7462H55.5365ZM54.0931 44.139C53.2793 44.139 52.6496 43.499 52.6496 42.7462H51.1496C51.1496 44.3603 52.484 45.639 54.0931 45.639V44.139ZM52.6496 42.7462C52.6496 41.9933 53.2793 41.3533 54.0931 41.3533V39.8533C52.484 39.8533 51.1496 41.1321 51.1496 42.7462H52.6496ZM54.0931 41.3533C54.9069 41.3533 55.5365 41.9933 55.5365 42.7462H57.0365C57.0365 41.1321 55.7021 39.8533 54.0931 39.8533V41.3533ZM30.4869 26.3214V28.0523H31.9869V26.3214H30.4869ZM27.2344 28.0523V26.3214H25.7344V28.0523H27.2344ZM28.8606 24.75C29.7754 24.75 30.4869 25.47 30.4869 26.3214H31.9869C31.9869 24.6087 30.5706 23.25 28.8606 23.25V24.75ZM28.8606 23.25C27.1506 23.25 25.7344 24.6087 25.7344 26.3214H27.2344C27.2344 25.47 27.9459 24.75 28.8606 24.75V23.25ZM40.7235 26.3214V28.0523H42.2235V26.3214H40.7235ZM37.471 28.0523V26.3214H35.971V28.0523H37.471ZM39.0973 24.75C40.012 24.75 40.7235 25.47 40.7235 26.3214H42.2235C42.2235 24.6087 40.8073 23.25 39.0973 23.25V24.75ZM39.0973 23.25C37.3873 23.25 35.971 24.6087 35.971 26.3214H37.471C37.471 25.47 38.1825 24.75 39.0973 24.75V23.25ZM50.9602 26.3214V28.0523H52.4602V26.3214H50.9602ZM47.7077 28.0523V26.3214H46.2077V28.0523H47.7077ZM49.3339 24.75C50.2487 24.75 50.9602 25.47 50.9602 26.3214H52.4602C52.4602 24.6087 51.0439 23.25 49.3339 23.25V24.75ZM49.3339 23.25C47.624 23.25 46.2077 24.6087 46.2077 26.3214H47.7077C47.7077 25.47 48.4192 24.75 49.3339 24.75V23.25ZM61.1945 26.3214V28.0523H62.6945V26.3214H61.1945ZM57.9419 28.0523V26.3214H56.4419V28.0523H57.9419ZM59.5682 24.75C60.483 24.75 61.1945 25.47 61.1945 26.3214H62.6945C62.6945 24.6087 61.2782 23.25 59.5682 23.25V24.75ZM59.5682 23.25C57.8582 23.25 56.4419 24.6087 56.4419 26.3214H57.9419C57.9419 25.47 58.6534 24.75 59.5682 24.75V23.25ZM61.1945 28.0523C61.1945 28.9505 60.4664 29.6786 59.5682 29.6786V31.1786C61.2948 31.1786 62.6945 29.7789 62.6945 28.0523H61.1945ZM39.0973 29.6786C38.1991 29.6786 37.471 28.9505 37.471 28.0523H35.971C35.971 29.7789 37.3707 31.1786 39.0973 31.1786V29.6786ZM28.8606 29.6786C27.9625 29.6786 27.2344 28.9505 27.2344 28.0523H25.7344C25.7344 29.7789 27.134 31.1786 28.8606 31.1786V29.6786ZM50.9602 28.0523C50.9602 28.9505 50.2321 29.6786 49.3339 29.6786V31.1786C51.0605 31.1786 52.4602 29.7789 52.4602 28.0523H50.9602ZM59.5682 29.6786C58.67 29.6786 57.9419 28.9505 57.9419 28.0523H56.4419C56.4419 29.7789 57.8416 31.1786 59.5682 31.1786V29.6786ZM40.7235 28.0523C40.7235 28.9505 39.9954 29.6786 39.0973 29.6786V31.1786C40.8239 31.1786 42.2235 29.7789 42.2235 28.0523H40.7235ZM49.3339 29.6786C48.4358 29.6786 47.7077 28.9505 47.7077 28.0523H46.2077C46.2077 29.7789 47.6074 31.1786 49.3339 31.1786V29.6786ZM30.4869 28.0523C30.4869 28.9505 29.7588 29.6786 28.8606 29.6786V31.1786C30.5872 31.1786 31.9869 29.7789 31.9869 28.0523H30.4869Z" fill="white"/>
<path d="M63.8579 56.8042V62.0952L67.8261 66.0634M75.7627 62.0952C75.7627 63.6585 75.4547 65.2066 74.8565 66.6509C74.2582 68.0953 73.3813 69.4077 72.2758 70.5131C71.1704 71.6186 69.858 72.4955 68.4136 73.0938C66.9693 73.692 65.4212 74 63.8579 74C62.2945 74 60.7465 73.692 59.3021 73.0938C57.8578 72.4955 56.5454 71.6186 55.4399 70.5131C54.3345 69.4077 53.4576 68.0953 52.8593 66.6509C52.2611 65.2066 51.9531 63.6585 51.9531 62.0952C51.9531 58.9379 53.2074 55.9098 55.4399 53.6773C57.6725 51.4447 60.7005 50.1904 63.8579 50.1904C67.0152 50.1904 70.0432 51.4447 72.2758 53.6773C74.5084 55.9098 75.7627 58.9379 75.7627 62.0952Z" stroke="white" stroke-width="1.5" stroke-linecap="round" stroke-linejoin="round"/>
<defs>
<linearGradient id="paint0_linear_396_88527" x1="102.574" y1="103.026" x2="-17.2231" y2="1.35878" gradientUnits="userSpaceOnUse">
<stop offset="0.10199" stop-color="#333339"/>
<stop offset="0.985" stop-color="#19181A"/>
</linearGradient>
</defs>
</svg>

<svg xmlns="http://www.w3.org/2000/svg" width="92" height="92" fill="none"><rect width="90" height="90" x="1" y="1" fill="url(#a)" stroke="#343434" stroke-width="2" rx="10"/><path fill="#fff" d="M21 35.464h46.429v-1.5H21v1.5Zm.75 33.179V34.714h-1.5v33.929h1.5Zm44.929-33.929v15.477h1.5V34.713h-1.5Zm-44.929 0v-6.071h-1.5v6.071h1.5Zm44.929-6.071v6.071h1.5v-6.071h-1.5ZM54.992 69.679H25.204v1.5h29.788v-1.5Zm-29.788 0h-2.376v1.5h2.376v-1.5Zm-2.376-42.072h3.656v-1.5h-3.656v1.5Zm8.591 0h5.484v-1.5h-5.484v1.5Zm9.87 0h5.85v-1.5h-5.85v1.5Zm10.42 0h5.666v-1.5H51.71v1.5Zm10.784 0h3.108v-1.5h-3.108v1.5Zm5.686 1.036c0-1.417-1.171-2.536-2.578-2.536v1.5c.612 0 1.078.48 1.078 1.036h1.5Zm-46.429 0c0-.556.466-1.036 1.078-1.036v-1.5c-1.407 0-2.578 1.119-2.578 2.536h1.5Zm-1.5 40c0 1.417 1.17 2.536 2.578 2.536v-1.5c-.612 0-1.078-.48-1.078-1.036h-1.5Zm10.236-25.897c0 .753-.63 1.393-1.443 1.393v1.5c1.609 0 2.943-1.279 2.943-2.893h-1.5Zm-1.443 1.393c-.814 0-1.444-.64-1.444-1.393h-1.5c0 1.614 1.335 2.893 2.944 2.893v-1.5Zm-1.444-1.393c0-.753.63-1.393 1.444-1.393v-1.5c-1.61 0-2.944 1.28-2.944 2.893h1.5Zm1.444-1.393c.814 0 1.443.64 1.443 1.393h1.5c0-1.614-1.334-2.893-2.943-2.893v1.5Zm1.443 9.696c0 .753-.63 1.393-1.443 1.393v1.5c1.609 0 2.943-1.279 2.943-2.893h-1.5Zm-1.443 1.393c-.814 0-1.444-.64-1.444-1.393h-1.5c0 1.614 1.335 2.893 2.944 2.893v-1.5Zm-1.444-1.393c0-.753.63-1.393 1.444-1.393v-1.5c-1.61 0-2.944 1.279-2.944 2.893h1.5Zm1.444-1.393c.814 0 1.443.64 1.443 1.393h1.5c0-1.614-1.334-2.893-2.943-2.893v1.5Zm1.443 10.732c0 .753-.63 1.393-1.443 1.393v1.5c1.609 0 2.943-1.279 2.943-2.893h-1.5Zm-1.443 1.393c-.814 0-1.444-.64-1.444-1.393h-1.5c0 1.614 1.335 2.893 2.944 2.893v-1.5Zm-1.444-1.393c0-.753.63-1.393 1.444-1.393v-1.5c-1.61 0-2.944 1.28-2.944 2.893h1.5Zm1.444-1.393c.814 0 1.443.64 1.443 1.393h1.5c0-1.614-1.334-2.893-2.943-2.893v1.5Zm14.5-16.249c0 .753-.63 1.393-1.444 1.393v1.5c1.61 0 2.944-1.279 2.944-2.893h-1.5Zm-1.444 1.393c-.813 0-1.443-.64-1.443-1.393h-1.5c0 1.614 1.334 2.893 2.944 2.893v-1.5Zm-1.443-1.393c0-.753.63-1.393 1.444-1.393v-1.5c-1.61 0-2.944 1.28-2.944 2.893h1.5Zm1.444-1.393c.813 0 1.443.64 1.443 1.393h1.5c0-1.614-1.334-2.893-2.944-2.893v1.5Zm1.443 9.696c0 .753-.63 1.393-1.444 1.393v1.5c1.61 0 2.944-1.279 2.944-2.893h-1.5Zm-1.444 1.393c-.813 0-1.443-.64-1.443-1.393h-1.5c0 1.614 1.334 2.893 2.944 2.893v-1.5Zm-1.443-1.393c0-.753.63-1.393 1.444-1.393v-1.5c-1.61 0-2.944 1.279-2.944 2.893h1.5Zm1.444-1.393c.813 0 1.443.64 1.443 1.393h1.5c0-1.614-1.334-2.893-2.944-2.893v1.5Zm1.443 10.732c0 .753-.63 1.393-1.444 1.393v1.5c1.61 0 2.944-1.279 2.944-2.893h-1.5Zm-1.444 1.393c-.813 0-1.443-.64-1.443-1.393h-1.5c0 1.614 1.334 2.893 2.944 2.893v-1.5Zm-1.443-1.393c0-.753.63-1.393 1.444-1.393v-1.5c-1.61 0-2.944 1.28-2.944 2.893h1.5Zm1.444-1.393c.813 0 1.443.64 1.443 1.393h1.5c0-1.614-1.334-2.893-2.944-2.893v1.5Zm13.436-16.249c0 .753-.63 1.393-1.443 1.393v1.5c1.61 0 2.943-1.279 2.943-2.893h-1.5Zm-1.443 1.393c-.814 0-1.443-.64-1.443-1.393h-1.5c0 1.614 1.334 2.893 2.943 2.893v-1.5Zm-1.443-1.393c0-.753.63-1.393 1.443-1.393v-1.5c-1.609 0-2.943 1.28-2.943 2.893h1.5Zm1.443-1.393c.814 0 1.443.64 1.443 1.393h1.5c0-1.614-1.334-2.893-2.943-2.893v1.5ZM30.487 26.321v1.731h1.5v-1.73h-1.5Zm-3.253 1.731v-1.73h-1.5v1.73h1.5Zm1.627-3.302c.914 0 1.626.72 1.626 1.571h1.5c0-1.712-1.416-3.071-3.126-3.071v1.5Zm0-1.5c-1.71 0-3.127 1.359-3.127 3.071h1.5c0-.851.712-1.571 1.627-1.571v-1.5Zm11.863 3.071v1.731h1.5v-1.73h-1.5Zm-3.253 1.731v-1.73h-1.5v1.73h1.5Zm1.626-3.302c.915 0 1.627.72 1.627 1.571h1.5c0-1.712-1.417-3.071-3.127-3.071v1.5Zm0-1.5c-1.71 0-3.126 1.359-3.126 3.071h1.5c0-.851.712-1.571 1.626-1.571v-1.5Zm11.863 3.071v1.731h1.5v-1.73h-1.5Zm-3.252 1.731v-1.73h-1.5v1.73h1.5Zm1.626-3.302c.915 0 1.626.72 1.626 1.571h1.5c0-1.712-1.416-3.071-3.126-3.071v1.5Zm0-1.5c-1.71 0-3.126 1.359-3.126 3.071h1.5c0-.851.711-1.571 1.626-1.571v-1.5Zm11.86 3.071v1.731h1.5v-1.73h-1.5Zm-3.252 1.731v-1.73h-1.5v1.73h1.5Zm1.626-3.302c.915 0 1.627.72 1.627 1.571h1.5c0-1.712-1.417-3.071-3.127-3.071v1.5Zm0-1.5c-1.71 0-3.126 1.359-3.126 3.071h1.5c0-.851.711-1.571 1.626-1.571v-1.5Zm1.627 4.802c0 .899-.729 1.627-1.627 1.627v1.5c1.727 0 3.127-1.4 3.127-3.127h-1.5ZM39.096 29.68a1.626 1.626 0 0 1-1.626-1.627h-1.5c0 1.727 1.4 3.127 3.126 3.127v-1.5Zm-10.236 0a1.626 1.626 0 0 1-1.627-1.627h-1.5c0 1.727 1.4 3.127 3.127 3.127v-1.5Zm22.1-1.627c0 .899-.729 1.627-1.627 1.627v1.5c1.726 0 3.126-1.4 3.126-3.127h-1.5Zm8.607 1.627a1.626 1.626 0 0 1-1.626-1.627h-1.5c0 1.727 1.4 3.127 3.126 3.127v-1.5Zm-18.844-1.627c0 .899-.729 1.627-1.627 1.627v1.5c1.727 0 3.127-1.4 3.127-3.127h-1.5Zm8.61 1.627a1.626 1.626 0 0 1-1.626-1.627h-1.5c0 1.727 1.4 3.127 3.126 3.127v-1.5Zm-18.847-1.627c0 .899-.728 1.627-1.626 1.627v1.5c1.726 0 3.126-1.4 3.126-3.127h-1.5Z"/><path stroke="#fff" stroke-linecap="round" stroke-linejoin="round" stroke-width="1.5" d="M63.858 56.804v5.291l3.968 3.968m7.937-3.968a11.906 11.906 0 1 1-23.812 0 11.906 11.906 0 0 1 23.812 0Z"/><defs><linearGradient id="a" x1="102.574" x2="-17.223" y1="103.026" y2="1.359" gradientUnits="userSpaceOnUse"><stop offset=".102" stop-color="#333339"/><stop offset=".985" stop-color="#19181A"/></linearGradient></defs></svg>
